rospo-icon-theme-classic-common/64x64/places/folder-yellow-steam.svg

<svg height="64" width="64" xmlns="http://www.w3.org/2000/svg"><rect height="32" opacity=".2" rx="2.5" width="50" x="7" y="24"/><path d="m7 44.5c0 1.385 1.115 2.5 2.5 2.5h45c1.385 0 2.5-1.115 2.5-2.5v-27c0-1.385-1.115-2.5-2.5-2.5h-25.5v-2.5c0-1.385-1.115-2.5-2.5-2.5h-17c-1.385 0-2.5 1.115-2.5 2.5" fill="#b58f1b"/><rect height="32" opacity=".2" rx="2.5" width="50" x="7" y="22"/><rect fill="#e4e4e4" height="20" rx="2.5" width="44" x="10" y="18"/><rect fill="#e2b322" height="32" rx="2.5" width="50" x="7" y="23"/><path d="m9.5 10c-1.385 0-2.5 1.115-2.5 2.5v1c0-1.385 1.115-2.5 2.5-2.5h17c1.385 0 2.5 1.115 2.5 2.5v-1c0-1.385-1.115-2.5-2.5-2.5zm19.5 5v1h25.5c1.39 0 2.5 1.115 2.5 2.5v-1c0-1.385-1.11-2.5-2.5-2.5z" fill="#fff" opacity=".1"/><path d="m16 42.112 6.016 3.474c-.01.138-.016.276-.016.414 0 3.314 2.686 6 6 6s6-2.686 6-6c-.004-.274-.026-.546-.066-.816l7.276-5.196c3.78-.114 6.786-3.208 6.79-6.988 0-3.866-3.134-7-7-7s-7.002 3.134-7 7.028l-4.644 7.136c-.444-.106-.9-.162-1.356-.164-.906.002-1.8.21-2.614.606l-9.386-5.418m25-7.188c2.762 0 5 2.238 5 5s-2.238 5-5 5-5-2.238-5-5 2.238-5 5-5zm0 2c-1.656 0-3 1.344-3 3s1.344 3 3 3 3-1.344 3-3-1.344-3-3-3zm-13 12c2.21 0 4 1.79 4 4s-1.79 4-4 4c-1.908-.002-3.548-1.352-3.918-3.222l1.41.816c1.44.83 3.266.342 4.098-1.098.83-1.44.342-3.266-1.098-4.098l-.676-.39c.062-.004.122-.006.184-.008z" fill="#4f3e0c"/></svg>

<svg xmlns="http://www.w3.org/2000/svg" width="64" height="64" version="1.1">
 <rect style="opacity:0.2" width="50" height="32" x="7" y="24" rx="2.5" ry="2.5"/>
 <path style="fill:#b58f1b" d="M 7,44.5 C 7,45.885 8.115,47 9.5,47 H 54.5 C 55.885,47 57,45.885 57,44.5 V 17.5 C 57,16.115 55.885,15 54.5,15 H 29 V 12.5 C 29,11.115 27.885,10 26.5,10 H 9.5 C 8.115,10 7,11.115 7,12.5"/>
 <rect style="opacity:0.2" width="50" height="32" x="7" y="22" rx="2.5" ry="2.5"/>
 <rect style="fill:#dcdcdc" width="44" height="20" x="10" y="18" rx="2.5" ry="2.5"/>
 <rect style="fill:#e2b322" width="50" height="32" x="7" y="23" rx="2.5" ry="2.5"/>
 <path style="opacity:0.1;fill:#ffffff" d="M 9.5,10 C 8.115,10 7,11.115 7,12.5 V 13.5 C 7,12.115 8.115,11 9.5,11 H 26.5 C 27.885,11 29,12.115 29,13.5 V 12.5 C 29,11.115 27.885,10 26.5,10 Z M 29,15 V 16 H 54.5 C 55.89,16 57,17.115 57,18.5 V 17.5 C 57,16.115 55.89,15 54.5,15 Z"/>
 <path style="fill:#4f3e0c" d="M 16,42.112 22.016,45.586 C 22.006,45.724 22,45.862 22,46 22,49.314 24.686,52 28,52 31.314,52 34,49.314 34,46 33.996,45.726 33.974,45.454 33.934,45.184 L 41.21,39.988 C 44.99,39.874 47.996,36.78 48,33 48,29.134 44.866,26 41,26 37.134,26 33.998,29.134 34,33.028 L 29.356,40.164 C 28.912,40.058 28.456,40.002 28,40 27.094,40.002 26.2,40.21 25.386,40.606 L 16,35.188 M 41,28 C 43.762,28 46,30.238 46,33 46,35.762 43.762,38 41,38 38.238,38 36,35.762 36,33 36,30.238 38.238,28 41,28 Z M 41,30 C 39.344,30 38,31.344 38,33 38,34.656 39.344,36 41,36 42.656,36 44,34.656 44,33 44,31.344 42.656,30 41,30 Z M 28,42 C 30.21,42 32,43.79 32,46 32,48.21 30.21,50 28,50 26.092,49.998 24.452,48.648 24.082,46.778 L 25.492,47.594 C 26.932,48.424 28.758,47.936 29.59,46.496 30.42,45.056 29.932,43.23 28.492,42.398 L 27.816,42.008 C 27.878,42.004 27.938,42.002 28,42 Z"/>
</svg>
